Newaita-dark/actions/22/draw-star.svg

<svg height="22" viewBox="0 0 22 22" width="22" xmlns="http://www.w3.org/2000/svg"><path d="m10.960938 2.90625c-.375-.019531-.71875.195312-.871094.535156l-2.003906 4.464844-4.863282.523438c-.355468.039062-.65625.28125-.765625.621093-.109375.339844-.011719.710938.253907.949219l3.628906 3.285156-1.003906 4.789063c-.074219.347656.0625.707031.351562.917969.289062.210937.675781.230468.984375.050781l4.242187-2.433594 4.246094 2.433594c.308594.179687.691406.160156.980469-.050781.289063-.210938.429687-.570313.355469-.917969l-1.007813-4.789063 3.628907-3.285156c.265624-.238281.367187-.609375.253906-.949219-.109375-.339843-.40625-.582031-.761719-.621093l-4.867187-.523438-2-4.464844c-.140626-.3125-.441407-.519531-.78125-.535156zm-.046876 3.117188 1.390626 3.097656c.128906.292968.40625.496094.726562.53125l3.375.359375-2.515625 2.277343c-.238281.21875-.34375.542969-.28125.859376l.699219 3.320312-2.941406-1.691406c-.28125-.160156-.625-.160156-.902344 0l-2.941406 1.691406.695312-3.320312c.066406-.316407-.039062-.640626-.277344-.859376l-2.515625-2.277343 3.371094-.359375c.320313-.035156.597656-.238282.730469-.53125zm0 0" fill="#e0e0e0"/></svg>

<svg xmlns="http://www.w3.org/2000/svg" xmlns:xlink="http://www.w3.org/1999/xlink" width="22px" height="22px" viewBox="0 0 22 22" version="1.1">
<g id="surface1">
     <defs>
  <style id="current-color-scheme" type="text/css">
   .ColorScheme-Text { color:#eeeeee; } .ColorScheme-Highlight { color:#424242; }
  </style>
 </defs>
<path style="fill:currentColor" class="ColorScheme-Text" d="M 10.960938 2.90625 C 10.585938 2.886719 10.242188 3.101562 10.089844 3.441406 L 8.085938 7.90625 L 3.222656 8.429688 C 2.867188 8.46875 2.566406 8.710938 2.457031 9.050781 C 2.347656 9.390625 2.445312 9.761719 2.710938 10 L 6.339844 13.285156 L 5.335938 18.074219 C 5.261719 18.421875 5.398438 18.78125 5.6875 18.992188 C 5.976562 19.203125 6.363281 19.222656 6.671875 19.042969 L 10.914062 16.609375 L 15.160156 19.042969 C 15.46875 19.222656 15.851562 19.203125 16.140625 18.992188 C 16.429688 18.78125 16.570312 18.421875 16.496094 18.074219 L 15.488281 13.285156 L 19.117188 10 C 19.382812 9.761719 19.484375 9.390625 19.371094 9.050781 C 19.261719 8.710938 18.964844 8.46875 18.609375 8.429688 L 13.742188 7.90625 L 11.742188 3.441406 C 11.601562 3.128906 11.300781 2.921875 10.960938 2.90625 Z M 10.914062 6.023438 L 12.304688 9.121094 C 12.433594 9.414062 12.710938 9.617188 13.03125 9.652344 L 16.40625 10.011719 L 13.890625 12.289062 C 13.652344 12.507812 13.546875 12.832031 13.609375 13.148438 L 14.308594 16.46875 L 11.367188 14.777344 C 11.085938 14.617188 10.742188 14.617188 10.464844 14.777344 L 7.523438 16.46875 L 8.21875 13.148438 C 8.285156 12.832031 8.179688 12.507812 7.941406 12.289062 L 5.425781 10.011719 L 8.796875 9.652344 C 9.117188 9.617188 9.394531 9.414062 9.527344 9.121094 Z M 10.914062 6.023438 "/>
</g>
</svg>
